public/images/logos/ingresso.svg

<?xml version="1.0" encoding="UTF-8" standalone="no"?>
<!-- Created with Vectornator (http://vectornator.io/) -->

<svg height="32" stroke-miterlimit="10" style="clip-rule:evenodd;fill-rule:nonzero;stroke-linecap:round;stroke-linejoin:round" version="1.1" viewBox="0 0 32 32" width="32" xml:space="preserve" id="svg18" sodipodi:docname="ingresso.svg" inkscape:version="1.4-beta2 (9aaf4f34, 2024-07-30)" xmlns:inkscape="http://www.inkscape.org/namespaces/inkscape" xmlns:sodipodi="http://sodipodi.sourceforge.net/DTD/sodipodi-0.dtd" xmlns="http://www.w3.org/2000/svg" xmlns:svg="http://www.w3.org/2000/svg"><sodipodi:namedview id="namedview18" pagecolor="#ffffff" bordercolor="#000000" borderopacity="0.25" inkscape:showpageshadow="2" inkscape:pageopacity="0.0" inkscape:pagecheckerboard="0" inkscape:deskcolor="#d1d1d1" inkscape:zoom="1.2660753" inkscape:cx="59.238184" inkscape:cy="-58.843263" inkscape:window-width="1440" inkscape:window-height="872" inkscape:window-x="0" inkscape:window-y="0" inkscape:window-maximized="1" inkscape:current-layer="svg18" />
<defs id="defs1" />

<clipPath id="ArtboardFrame">
<rect height="80" width="200" x="0" y="0" id="rect1" />
</clipPath>
<g clip-path="url(#ClipPath)" id="g17" style="clip-rule:evenodd;fill:#000000;fill-rule:nonzero;stroke-linecap:round;stroke-linejoin:round" transform="matrix(0.69049299,0,0,0.69049299,3.8353252,-7.7393907)">


<path d="m 4.61735,11.2085 c -2.56637,0 -4.62499757,2.0697 -4.62499757,4.625 v 37.0937 c -1.27e-6,2.5664 2.06972757,4.625 4.62499757,4.625 H 30.6174 c 2.5662,0 4.625,-2.0697 4.625,-4.625 V 15.8335 c 0,-2.5664 -2.0699,-4.625 -4.625,-4.625 z m 13.00005,4.8437 c 2.3499,0 4.25,1.9312 4.25,4.2813 0,2.35 -1.9001,4.25 -4.25,4.25 -2.3502,0 -4.25,-1.9001 -4.25,-4.25 0,-2.3501 1.8998,-4.2813 4.25,-4.2813 z m -3.7813,12.5313 h 7.5625 c 0.3223,0 0.5625,0.2403 0.5625,0.5625 v 22.9687 c 0,0.3222 -0.2402,0.5938 -0.5625,0.5938 h -4.0937 c -2.2443,0 -4.0313,-1.8183 -4.0313,-4.0625 h -0.0312 v -19.5 c 0,-0.3222 0.2715,-0.5625 0.5937,-0.5625 z" fill="#000000" fill-rule="nonzero" opacity="1" stroke="none" id="path16" style="fill:#000000" />
</g>
</svg>

<?xml version="1.0" encoding="UTF-8" standalone="no"?>
<!DOCTYPE svg PUBLIC "-//W3C//DTD SVG 1.1//EN" "http://www.w3.org/Graphics/SVG/1.1/DTD/svg11.dtd">
<!-- Created with Vectornator (http://vectornator.io/) -->
<svg height="100%" stroke-miterlimit="10" style="fill-rule:nonzero;clip-rule:evenodd;stroke-linecap:round;stroke-linejoin:round;" version="1.1" viewBox="0 0 200 80" width="100%" xml:space="preserve" xmlns="http://www.w3.org/2000/svg" xmlns:xlink="http://www.w3.org/1999/xlink">
<defs/>
<path d="M0 0L200 0L200 80L0 80L0 0Z" fill="#000000" fill-opacity="0" fill-rule="nonzero" opacity="1" stroke="none"/>
<clipPath id="ArtboardFrame">
<rect height="80" width="200" x="0" y="0"/>
</clipPath>
<g clip-path="url(#ArtboardFrame)" id="Sem-Título">
<g opacity="1">
<clipPath id="ClipPath">
<path d="M-1.42109e-14 11.1979L200 11.1979L200 11.1979L200 68.8021L200 68.8021L-1.42109e-14 68.8021L-1.42109e-14 68.8021L-1.42109e-14 11.1979L-1.42109e-14 11.1979Z"/>
</clipPath>
<g clip-path="url(#ClipPath)">
<g opacity="1">
<path d="M70.0142 32.362C69.6699 31.7288 69.1477 31.2066 68.4589 30.7956C67.7701 30.3955 66.8369 30.1845 65.6703 30.1845C64.6927 30.1845 63.7928 30.2956 62.9817 30.5067C62.1596 30.7178 61.4375 31.0289 60.8042 31.451C60.1709 31.8732 59.6598 32.3843 59.2488 32.9953L59.2488 30.8399C59.2488 30.6177 59.0711 30.44 58.8489 30.44L54.0939 30.44C53.8716 30.44 53.6939 30.6177 53.6939 30.8399L53.6939 46.8938C53.6939 47.116 53.8716 47.2937 54.0939 47.2937L59.46 47.2937C59.682 47.2937 59.8599 47.116 59.8599 46.8938L59.8599 38.7501C59.8599 37.9947 60.1154 37.2504 60.6264 36.6948C60.9486 36.3505 61.3042 36.0727 61.693 35.8839C62.0818 35.695 62.4485 35.595 62.7928 35.595C63.2928 35.595 63.7261 35.7838 64.1039 36.1505C64.4816 36.5171 64.6704 37.1171 64.6704 37.9392L64.6704 46.9159C64.6704 47.1382 64.8483 47.3159 65.0705 47.3159L70.4364 47.3159C70.6586 47.3159 70.8363 47.1382 70.8363 46.9159L70.8363 36.2727C70.8363 35.695 70.7809 35.0617 70.6697 34.3729C70.5587 33.6841 70.3365 33.0175 69.992 32.3732L70.0142 32.362Z" fill="#000000" fill-rule="nonzero" opacity="1" stroke="none"/>
<path d="M105.666 29.896C104.644 29.896 103.688 30.207 102.777 30.8181C101.866 31.4403 101.111 32.3179 100.5 33.4622L100.5 30.8404C100.5 30.6182 100.322 30.4403 100.1 30.4403L95.2448 30.4403C95.0226 30.4403 94.8447 30.6182 94.8447 30.8404L94.8447 46.8941C94.8447 47.1163 95.0226 47.294 95.2448 47.294L100.611 47.294C100.833 47.294 101.011 47.1163 101.011 46.8941L101.011 37.3285C101.011 37.2285 101.044 37.1284 101.111 37.0507C101.588 36.5063 102.277 36.1175 103.188 35.8731C104.055 35.6398 105.01 35.5175 106.044 35.4843C106.255 35.4843 106.432 35.3064 106.432 35.0953L106.432 29.9294C106.344 29.907 106.255 29.896 106.155 29.896L105.655 29.896L105.666 29.896Z" fill="#000000" fill-rule="nonzero" opacity="1" stroke="none"/>
<path d="M121.897 31.4069C120.509 30.5958 118.798 30.1959 116.764 30.1959C114.731 30.1959 113.02 30.6069 111.632 31.418C110.243 32.2402 109.199 33.3178 108.488 34.6732C107.777 36.0286 107.421 37.5062 107.421 39.1172C107.421 40.2504 107.632 41.3279 108.043 42.3501C108.454 43.3721 109.054 44.2832 109.843 45.072C110.632 45.8608 111.61 46.4829 112.776 46.9384C113.942 47.3939 115.276 47.6272 116.764 47.6272C118.153 47.6272 119.397 47.4273 120.497 47.0274C121.597 46.6274 122.564 46.083 123.375 45.3831C124.052 44.8053 124.608 44.1499 125.03 43.4277C125.163 43.2055 125.052 42.9166 124.797 42.8501L120.364 41.5835C120.197 41.539 119.997 41.628 119.909 41.7723C119.686 42.1835 119.342 42.5056 118.853 42.75C118.253 43.05 117.62 43.2055 116.953 43.2055C116.476 43.2055 116.02 43.1278 115.576 42.9611C115.131 42.7945 114.765 42.539 114.476 42.1724C114.265 41.9168 114.12 41.6057 114.043 41.228C113.987 40.9836 114.187 40.7614 114.431 40.7614L125.619 40.7614C125.819 40.7614 125.986 40.6169 126.008 40.4281C126.03 40.2615 126.052 40.0837 126.074 39.8838C126.108 39.5504 126.119 39.2282 126.119 38.9061C126.119 37.3506 125.763 35.9064 125.052 34.5844C124.341 33.2622 123.286 32.1957 121.908 31.3847L121.897 31.4069ZM114.32 37.0728C114.065 37.0728 113.876 36.8396 113.931 36.5952C114.02 36.273 114.143 35.9841 114.309 35.7287C114.554 35.362 114.887 35.0731 115.287 34.8732C115.687 34.6732 116.142 34.5733 116.664 34.5733C117.187 34.5733 117.642 34.6732 118.042 34.8732C118.442 35.0731 118.764 35.362 119.02 35.7287C119.186 35.973 119.32 36.2619 119.397 36.5841C119.464 36.8285 119.264 37.0619 119.009 37.0619L114.309 37.0619L114.32 37.0728Z" fill="#000000" fill-rule="nonzero" opacity="1" stroke="none"/>
<path d="M139.328 38.0392C138.395 37.6058 137.195 37.1837 135.729 36.7615C135.229 36.6171 134.818 36.4838 134.496 36.3616C134.173 36.2505 133.929 36.1172 133.785 35.9838C133.64 35.8505 133.562 35.6728 133.562 35.4617C133.562 35.2505 133.618 35.0839 133.729 34.9507C133.84 34.8284 133.996 34.7285 134.196 34.6618C134.396 34.5952 134.64 34.5617 134.929 34.5617C135.518 34.5617 136.184 34.7062 136.929 34.984C137.595 35.2395 138.395 35.6394 139.328 36.206C139.517 36.3171 139.762 36.2616 139.873 36.0838L141.817 32.9508C141.928 32.7731 141.884 32.5398 141.728 32.4176C140.728 31.6067 139.706 31.04 138.64 30.7178C137.484 30.3623 136.329 30.1845 135.185 30.1845C133.651 30.1845 132.329 30.44 131.241 30.9511C130.152 31.4622 129.307 32.1621 128.73 33.0397C128.141 33.9174 127.852 34.9395 127.852 36.0838C127.852 37.0615 128.074 37.8391 128.519 38.428C128.963 39.0168 129.63 39.5056 130.529 39.9057C131.429 40.3056 132.552 40.75 133.885 41.2166C134.407 41.361 134.829 41.5055 135.162 41.6276C135.496 41.7499 135.74 41.8832 135.896 42.0053C136.051 42.1387 136.118 42.2942 136.118 42.4832C136.118 42.7276 136.007 42.9053 135.796 43.0052C135.585 43.1053 135.24 43.1607 134.785 43.1607C133.985 43.1607 133.096 42.9609 132.107 42.572C131.229 42.2276 130.33 41.761 129.396 41.1721C129.207 41.05 128.952 41.1167 128.841 41.3055L127.097 44.4495C127.008 44.6162 127.041 44.8383 127.186 44.9606C128.13 45.7827 129.274 46.4159 130.596 46.8714C132.029 47.3604 133.507 47.6047 134.996 47.6047C137.184 47.6047 138.906 47.1047 140.173 46.116C141.439 45.1272 142.073 43.7496 142.073 41.9943C142.073 41.0055 141.85 40.1944 141.406 39.5834C140.962 38.9723 140.273 38.4502 139.34 38.017L139.328 38.0392Z" fill="#000000" fill-rule="nonzero" opacity="1" stroke="none"/>
<path d="M86.3789 32.9845C85.8346 32.0512 85.1013 31.3513 84.157 30.8958C83.2126 30.4292 82.135 30.1959 80.924 30.1959C79.713 30.1959 78.6799 30.4181 77.7133 30.8515C76.7356 31.2848 75.9023 31.9069 75.2024 32.7067C74.5026 33.5067 73.947 34.451 73.5581 35.5175C73.1693 36.5952 72.9694 37.7618 72.9694 39.0505C72.9694 40.3393 73.1471 41.3946 73.5027 42.439C73.8581 43.4833 74.3581 44.3943 75.0135 45.172C75.6579 45.9496 76.4467 46.5608 77.3689 46.994C78.291 47.4273 79.302 47.6495 80.4018 47.6495C81.5017 47.6495 82.4905 47.4273 83.4348 46.9829C84.3792 46.5385 85.0902 45.8719 85.5568 44.9832L85.5568 46.083C85.5568 47.1052 85.3569 47.8828 84.9681 48.4272C84.5791 48.9716 84.0681 49.3604 83.4237 49.616C82.7905 49.8604 82.0906 49.9826 81.3351 49.9826C80.3351 49.9826 79.4019 49.7826 78.5243 49.3827C77.7689 49.0382 77.1133 48.6272 76.5468 48.1494C76.3912 48.016 76.158 48.0273 76.0135 48.1717L73.3027 50.9936C73.1471 51.1602 73.1471 51.4157 73.3027 51.5712C74.2693 52.4935 75.3691 53.2044 76.6024 53.7155C77.9576 54.2821 79.5242 54.5599 81.324 54.5599C83.4015 54.5599 85.2235 54.2043 86.7789 53.4822C88.3343 52.76 89.5453 51.7491 90.4118 50.4382C91.2785 49.1271 91.7116 47.5939 91.7116 45.8386L91.7116 30.8625C91.7116 30.6403 91.5339 30.4626 91.3117 30.4626L86.7567 30.4626C86.5345 30.4626 86.3568 30.6403 86.3568 30.8625L86.3568 32.9956L86.3789 32.9845ZM85.5235 39.106C85.5235 40.7392 84.2014 42.0612 82.5683 42.0612C80.9351 42.0612 79.613 40.7392 79.613 39.106C79.613 37.4729 80.9351 36.1507 82.5683 36.1507C84.2014 36.1507 85.5235 37.4729 85.5235 39.106Z" fill="#000000" fill-rule="nonzero" opacity="1" stroke="none"/>
<path d="M155.593 38.0392C154.66 37.6058 153.46 37.1837 151.994 36.7615C151.494 36.6171 151.083 36.4838 150.76 36.3616C150.439 36.2505 150.194 36.1172 150.05 35.9838C149.905 35.8505 149.827 35.6728 149.827 35.4617C149.827 35.2505 149.883 35.0839 149.994 34.9507C150.105 34.8284 150.26 34.7285 150.46 34.6618C150.661 34.5952 150.905 34.5617 151.193 34.5617C151.782 34.5617 152.449 34.7062 153.194 34.984C153.861 35.2395 154.66 35.6394 155.593 36.206C155.782 36.3171 156.026 36.2616 156.137 36.0838L158.081 32.9508C158.192 32.7731 158.149 32.5398 157.994 32.4176C156.993 31.6067 155.972 31.04 154.905 30.7178C153.75 30.3623 152.593 30.1845 151.45 30.1845C149.916 30.1845 148.594 30.44 147.505 30.9511C146.417 31.4622 145.573 32.1621 144.994 33.0397C144.406 33.9174 144.117 34.9395 144.117 36.0838C144.117 37.0615 144.339 37.8391 144.784 38.428C145.227 39.0168 145.894 39.5056 146.794 39.9057C147.694 40.3056 148.816 40.75 150.149 41.2166C150.672 41.361 151.094 41.5055 151.427 41.6276C151.761 41.7499 152.004 41.8832 152.16 42.0053C152.315 42.1387 152.383 42.2942 152.383 42.4832C152.383 42.7276 152.272 42.9053 152.06 43.0052C151.849 43.1053 151.505 43.1607 151.049 43.1607C150.249 43.1607 149.36 42.9609 148.372 42.572C147.494 42.2276 146.594 41.761 145.661 41.1721C145.472 41.05 145.217 41.1167 145.106 41.3055L143.361 44.4495C143.272 44.6162 143.306 44.8383 143.45 44.9606C144.395 45.7827 145.538 46.4159 146.862 46.8714C148.295 47.3604 149.772 47.6047 151.261 47.6047C153.449 47.6047 155.171 47.1047 156.438 46.116C157.704 45.1272 158.338 43.7496 158.338 41.9943C158.338 41.0055 158.115 40.1944 157.671 39.5834C157.226 38.9723 156.538 38.4502 155.605 38.017L155.593 38.0392Z" fill="#000000" fill-rule="nonzero" opacity="1" stroke="none"/>
<path d="M177.812 35.6061C177.413 34.5507 176.813 33.6175 176.024 32.8175C175.236 32.0066 174.258 31.3732 173.103 30.9066C171.947 30.44 170.592 30.2067 169.058 30.2067C167.526 30.2067 166.204 30.44 165.037 30.9066C163.871 31.3732 162.893 32.0177 162.104 32.8175C161.315 33.6286 160.715 34.5617 160.315 35.6061C159.915 36.6505 159.715 37.7614 159.715 38.9057C159.715 40.05 159.915 41.1499 160.315 42.1943C160.715 43.2385 161.315 44.1718 162.104 44.9828C162.893 45.8049 163.871 46.4494 165.037 46.9159C166.204 47.3825 167.547 47.6158 169.058 47.6158C170.57 47.6158 171.947 47.3825 173.103 46.9159C174.258 46.4494 175.236 45.8049 176.024 44.9828C176.813 44.1607 177.413 43.2274 177.812 42.1943C178.213 41.1499 178.413 40.05 178.413 38.9057C178.413 37.7614 178.213 36.6505 177.812 35.6061ZM169.536 41.8387C167.536 42.1498 165.836 40.45 166.148 38.4502C166.336 37.2059 167.359 36.1839 168.603 35.9949C170.603 35.6839 172.303 37.3836 171.991 39.3835C171.803 40.6277 170.78 41.6498 169.536 41.8387Z" fill="#000000" fill-rule="nonzero" opacity="1" stroke="none"/>
<path d="M142.406 68.7797C140.895 68.7797 139.551 68.5464 138.395 68.0798C137.24 67.6132 136.262 66.9689 135.462 66.1468C134.662 65.3246 134.051 64.3914 133.64 63.3582C133.229 62.3138 133.018 61.214 133.018 60.0697C133.018 58.5366 133.385 57.1034 134.107 55.7701C134.829 54.437 135.895 53.3705 137.284 52.5594C138.684 51.7484 140.384 51.3484 142.395 51.3484C144.406 51.3484 146.183 51.7818 147.583 52.6483C148.839 53.4148 149.805 54.3925 150.494 55.559C150.628 55.7812 150.517 56.059 150.272 56.1368L144.994 57.7366C144.85 57.7811 144.683 57.7366 144.583 57.6145C144.329 57.3033 144.039 57.0478 143.706 56.8701C143.306 56.659 142.861 56.5479 142.361 56.5479C141.795 56.5479 141.295 56.6922 140.839 56.97C140.384 57.2478 140.017 57.6477 139.751 58.1699C139.484 58.6921 139.34 59.3253 139.34 60.0697C139.34 60.8141 139.473 61.4251 139.751 61.9584C140.028 62.4917 140.384 62.8916 140.839 63.1694C141.295 63.447 141.806 63.5915 142.361 63.5915C142.706 63.5915 143.017 63.5471 143.306 63.447C143.584 63.3471 143.85 63.2026 144.105 63.0137C144.284 62.8694 144.449 62.7139 144.595 62.536C144.694 62.4139 144.861 62.3694 145.005 62.4139L150.283 64.0137C150.527 64.0915 150.638 64.3691 150.505 64.5913C150.083 65.3246 149.539 65.98 148.872 66.5578C148.083 67.2466 147.15 67.8022 146.083 68.2021C145.017 68.602 143.783 68.8021 142.395 68.8021L142.406 68.7797Z" fill="#000000" fill-rule="nonzero" opacity="1" stroke="none"/>
<path d="M199.6 68.4579L194.234 68.4579C194.011 68.4579 193.833 68.2802 193.833 68.058L193.833 59.0812C193.833 58.2591 193.666 57.6591 193.334 57.2925C193 56.926 192.589 56.737 192.111 56.737C191.633 56.737 191.112 56.9592 190.556 57.4036C190.556 57.4036 190.544 57.4036 190.534 57.4147C189.745 58.0481 189.312 59.0256 189.312 60.0367L189.312 68.058C189.312 68.2802 189.134 68.4579 188.911 68.4579L183.545 68.4579C183.324 68.4579 183.145 68.2802 183.145 68.058L183.145 59.0812C183.145 58.2591 182.979 57.6591 182.645 57.2925C182.313 56.926 181.901 56.737 181.424 56.737C180.946 56.737 180.423 56.9481 179.869 57.3815C179.869 57.3815 179.857 57.3815 179.846 57.3926C179.058 58.0036 178.625 58.9702 178.625 59.959L178.625 68.0469C178.625 68.2691 178.446 68.4468 178.224 68.4468L172.858 68.4468C172.635 68.4468 172.458 68.2691 172.458 68.0469L172.458 51.9932C172.458 51.771 172.635 51.5931 172.858 51.5931L177.614 51.5931C177.835 51.5931 178.013 51.771 178.013 51.9932L178.013 54.1484C178.613 53.2374 179.447 52.5375 180.513 52.0599C181.568 51.582 182.824 51.3376 184.278 51.3376C185.734 51.3376 186.745 51.6376 187.457 52.2265C188.167 52.8264 188.645 53.493 188.89 54.2373C189.5 53.3263 190.334 52.6042 191.39 52.1042C192.445 51.5933 193.645 51.3376 194.955 51.3376C196.077 51.3376 196.977 51.5377 197.656 51.9487C198.322 52.3486 198.834 52.8708 199.166 53.5152C199.499 54.1595 199.722 54.8151 199.833 55.5149C199.944 56.2037 200 56.8371 200 57.4147L200 68.058C200 68.2802 199.821 68.4579 199.6 68.4579Z" fill="#000000" fill-rule="nonzero" opacity="1" stroke="none"/>
<path d="M169.692 56.7592C169.291 55.7039 168.692 54.7706 167.903 53.9707C167.114 53.1597 166.136 52.5264 164.981 52.0599C163.826 51.5933 162.471 51.36 160.937 51.36C159.404 51.36 158.081 51.5933 156.915 52.0599C155.749 52.5264 154.771 53.1707 153.983 53.9707C153.194 54.7818 152.593 55.715 152.194 56.7592C151.794 57.8146 151.594 58.9146 151.594 60.0589C151.594 61.2032 151.794 62.3032 152.194 63.3474C152.593 64.3917 153.194 65.3249 153.983 66.136C154.771 66.9581 155.749 67.6024 156.915 68.069C158.081 68.5358 159.427 68.7691 160.937 68.7691C162.448 68.7691 163.826 68.5358 164.981 68.069C166.136 67.6024 167.114 66.9581 167.903 66.136C168.692 65.3138 169.291 64.3806 169.692 63.3474C170.092 62.3032 170.292 61.2032 170.292 60.0589C170.292 58.9146 170.092 57.8036 169.692 56.7592ZM161.415 62.992C159.415 63.303 157.716 61.6031 158.027 59.6034C158.215 58.3591 159.238 57.337 160.482 57.1482C162.481 56.8371 164.182 58.5369 163.871 60.5366C163.681 61.781 162.66 62.803 161.415 62.992Z" fill="#000000" fill-rule="nonzero" opacity="1" stroke="none"/>
<path d="M128.285 68.4246C129.917 68.4246 131.24 67.1016 131.24 65.4694C131.24 63.8373 129.917 62.5141 128.285 62.5141C126.653 62.5141 125.33 63.8373 125.33 65.4694C125.33 67.1016 126.653 68.4246 128.285 68.4246Z" fill="#000000" fill-rule="nonzero" opacity="1" stroke="none"/>
<path d="M47.6279 27.5627C49.26 27.5627 50.5832 26.2397 50.5832 24.6076C50.5832 22.9754 49.26 21.6523 47.6279 21.6523C45.9959 21.6523 44.6727 22.9754 44.6727 24.6076C44.6727 26.2397 45.9959 27.5627 47.6279 27.5627Z" fill="#000000" fill-rule="nonzero" opacity="1" stroke="none"/>
<path d="M50.2498 47.1158L47.4167 47.1158C45.8614 47.1158 44.5948 45.8493 44.5948 44.294L44.5948 30.7399C44.5948 30.5176 44.7726 30.3399 44.9947 30.3399L50.2609 30.3399C50.4831 30.3399 50.6608 30.5176 50.6608 30.7399L50.6608 46.7159C50.6608 46.9381 50.4831 47.1158 50.2609 47.1158L50.2498 47.1158Z" fill="#000000" fill-rule="nonzero" opacity="1" stroke="none"/>
</g>
<g opacity="1"/>
<path d="M4.61735 11.2085C2.05098 11.2085-0.00764757 13.2782-0.00764757 15.8335L-0.00764757 52.9272C-0.00764884 55.4936 2.06208 57.5522 4.61735 57.5522L30.6174 57.5522C33.1836 57.5522 35.2424 55.4825 35.2424 52.9272L35.2424 15.8335C35.2424 13.2671 33.1725 11.2085 30.6174 11.2085L4.61735 11.2085ZM17.6174 16.0522C19.9673 16.0522 21.8674 17.9834 21.8674 20.3335C21.8674 22.6835 19.9673 24.5835 17.6174 24.5835C15.2672 24.5835 13.3674 22.6834 13.3674 20.3335C13.3674 17.9834 15.2672 16.0522 17.6174 16.0522ZM13.8361 28.5835L21.3986 28.5835C21.7209 28.5835 21.9611 28.8238 21.9611 29.146L21.9611 52.1147C21.9611 52.4369 21.7209 52.7085 21.3986 52.7085L17.3049 52.7085C15.0606 52.7085 13.2736 50.8902 13.2736 48.646L13.2424 48.646L13.2424 29.146C13.2424 28.8238 13.5139 28.5835 13.8361 28.5835Z" fill="#000000" fill-rule="nonzero" opacity="1" stroke="none"/>
</g>
</g>
</g>
</svg>
